X:1
T:Title
%%score { 1 | ( 2 3 ) }
L:1/8
Q:1/4=84
M:6/8
K:C
V:1 treble nm="Grand Piano"
V:2 bass 
V:3 bass 
V:1
 [EG][EG][EG] [Ec]2 [CE] | [CE] [EG]2- [EG]2 [EG]/[Ec]/ | [DFB]2 [DFB] [CFc]2 [B,Fd] | %3
w: W.~H.~Ruebush * * * *|||
[M:5/8] [Ec]-[Ec]- [Ec]3 |[M:1/8] [EG] |[M:3/4] [EG]2 [EG] [Ec]2 [CE] | [CE][EG]- [EG]3 [Ec] | %7
w: ||||
 B2 D [^CE]2 [=C^F] |[M:5/8] [B,G]-[B,G]- [B,G]3 |[M:1/8] G |[M:3/4] d2 d B2 G | %11
w: ||||
 [EG][Ec]- [Ec]3 [Ec] | d2 d B2 G |[M:5/8] [Ge]-[Ge]- [Ge]3 |[M:1/8] [Ec]/[Ec]/ | %15
w: ||||
[M:3/4] [Ac]2 [Ac] [GB]2 [FA] | [FA][EG]- [EG]3 [EG]/G/ | G2 d A2 B |[M:5/8] [Ec]-[Ec]- [Ec]3 | %19
w: ||||
[M:1/8] [EG] |[M:3/4] d2 d B2 G | [EG][Ec]- [Ec]3 [Ec] | d2 d B2 G |[M:5/8] [Ec]-[Ec]- [Ec]3 | %24
w: |||||
[M:1/8] [Ec]/[Ec]/ |[M:3/4] [Ac]2 [Ac] [GB]2 [FA] | [FA][EG]- [EG]3 [EG]/G/ | G2 d A2 B | %28
w: ||||
[M:13/8] [Ec]-[Ec]- [Ec]3 z z z z z z z2 |] %29
w: |
V:2
 [C,C][C,C][C,C] [C,G,]2 [C,G,] | [C,G,] [C,C]2- [C,C]2 [C,C]/[C,G,]/ | G,,2 G,, G,,2 G,, | %3
[M:5/8] [C,C]-[C,C]- [C,C]3 |[M:1/8] [C,C] |[M:3/4] [C,C]2 [C,C] [C,G,]2 [C,G,] | %6
 [C,G,][C,C]- [C,C]3 [C,G,] | [D,G,D]2 [D,B,] [A,,A,]2 [D,A,] |[M:5/8] [G,,G,]-[G,,G,]- [G,,G,]3 | %9
[M:1/8][K:treble] [G,B,D] |[M:3/4] [G,B,F]2 [G,B,F] [G,DF]2 [F,B,F] | [C,C][C,G,]- [C,G,]3 [C,G,] | %12
 [G,B,F]2 [G,B,F] [G,DF]2 [G,B,F] |[M:5/8][K:bass] [C,C]-[C,C]- [C,C]3 |[M:1/8] [C,C]/[C,C]/ | %15
[M:3/4] [F,C]2 [F,C] [F,C]2 [F,C] | [C,C][C,C]- [C,C]3 z/[K:treble] E/ | %17
 [G,B,]2 [A,D^F] [G,D=F]2 [G,DF] |[M:5/8][K:bass] [C,C]-[C,C]- [C,C]3 |[M:1/8] [C,C] | %20
[M:3/4][K:treble] [G,B,F]2 [G,B,F] [G,DF]2 [G,B,F] | [C,C][C,G,]- [C,G,]3 [C,G,] | %22
 [G,B,F]2 [G,B,F] [G,DF]2 [G,B,F] |[M:5/8][K:bass] [C,C]-[C,C]- [C,C]3 |[M:1/8] [C,C]/[C,C]/ | %25
[M:3/4] [F,C]2 [F,C] [F,C]2 [F,C] | [C,C][C,C]- [C,C]3 z/[K:treble] E/ | %27
 [G,B,]2 [A,D^F] [G,D=F]2 [G,DF] |[M:13/8][K:bass] [C,C]-[C,C]- [C,C]3 z z z z z z z2 |] %29
V:3
 x6 | x6 | x6 |[M:5/8] x5 |[M:1/8] x |[M:3/4] x6 | x6 | x6 |[M:5/8] x5 |[M:1/8][K:treble] x | %10
[M:3/4] x6 | x6 | x6 |[M:5/8][K:bass] x5 |[M:1/8] x |[M:3/4] x6 | z2 z2 z [C,C][K:treble] | x6 | %18
[M:5/8][K:bass] x5 |[M:1/8] x |[M:3/4][K:treble] x6 | x6 | x6 |[M:5/8][K:bass] x5 |[M:1/8] x | %25
[M:3/4] x6 | z2 z2 z [C,C][K:treble] | x6 |[M:13/8][K:bass] x13 |] %29

